assets/icons/square.svg

<svg width="20" height="20" viewBox="0 0 20 20" fill="none" xmlns="http://www.w3.org/2000/svg">
<path d="M17.5 1.25C17.8315 1.25 18.1495 1.3817 18.3839 1.61612C18.6183 1.85054 18.75 2.16848 18.75 2.5V17.5C18.75 17.8315 18.6183 18.1495 18.3839 18.3839C18.1495 18.6183 17.8315 18.75 17.5 18.75H2.5C2.16848 18.75 1.85054 18.6183 1.61612 18.3839C1.3817 18.1495 1.25 17.8315 1.25 17.5V2.5C1.25 2.16848 1.3817 1.85054 1.61612 1.61612C1.85054 1.3817 2.16848 1.25 2.5 1.25H17.5ZM2.5 0C1.83696 0 1.20107 0.263392 0.732233 0.732233C0.263392 1.20107 0 1.83696 0 2.5L0 17.5C0 18.163 0.263392 18.7989 0.732233 19.2678C1.20107 19.7366 1.83696 20 2.5 20H17.5C18.163 20 18.7989 19.7366 19.2678 19.2678C19.7366 18.7989 20 18.163 20 17.5V2.5C20 1.83696 19.7366 1.20107 19.2678 0.732233C18.7989 0.263392 18.163 0 17.5 0L2.5 0Z" fill="#B791F5"/>
</svg>

<svg width="20" height="20" viewBox="0 0 20 20" fill="none" xmlns="http://www.w3.org/2000/svg"><path d="M17.5 1.25a1.25 1.25 0 011.25 1.25v15a1.25 1.25 0 01-1.25 1.25h-15a1.25 1.25 0 01-1.25-1.25v-15A1.25 1.25 0 012.5 1.25h15zM2.5 0A2.5 2.5 0 000 2.5v15A2.5 2.5 0 002.5 20h15a2.5 2.5 0 002.5-2.5v-15A2.5 2.5 0 0017.5 0h-15z" fill="#B791F5"/></svg>
